svg/color/dfy.svg

<?xml version="1.0" encoding="UTF-8" ?>
<!DOCTYPE svg PUBLIC "-//W3C//DTD SVG 1.1//EN" "http://www.w3.org/Graphics/SVG/1.1/DTD/svg11.dtd">
<svg width="250pt" height="250pt" viewBox="0 0 250 250" version="1.1" xmlns="http://www.w3.org/2000/svg">
<g id="#ffffffff">
<path fill="#ffffff" opacity="1.00" d=" M 0.00 0.00 L 116.60 0.00 C 91.00 2.14 65.97 11.74 46.05 28.05 C 31.93 39.44 20.61 54.13 12.47 70.30 C 5.53 85.15 1.15 101.20 0.00 117.57 L 0.00 0.00 Z" />
<path fill="#ffffff" opacity="1.00" d=" M 132.42 0.00 L 250.00 0.00 L 250.00 116.61 C 247.29 82.78 231.02 49.93 204.46 28.55 C 184.32 11.60 158.60 1.86 132.42 0.00 Z" />
<path fill="#ffffff" opacity="1.00" d=" M 235.54 183.51 C 243.94 167.77 248.63 150.17 250.00 132.42 L 250.00 250.00 L 133.39 250.00 C 158.51 247.89 183.12 238.64 202.83 222.82 C 216.36 212.24 227.34 198.56 235.54 183.51 Z" />
<path fill="#ffffff" opacity="1.00" d=" M 0.00 133.39 C 1.54 149.79 5.61 166.07 13.17 180.76 C 23.08 200.97 38.71 218.31 57.73 230.34 C 75.52 241.96 96.46 248.37 117.57 250.00 L 0.00 250.00 L 0.00 133.39 Z" />
</g>
<g id="#ffbf00ff">
<path fill="#ffbf00" opacity="1.00" d=" M 116.60 0.00 L 132.42 0.00 C 158.60 1.86 184.32 11.60 204.46 28.55 C 231.02 49.93 247.29 82.78 250.00 116.61 L 250.00 132.42 C 248.63 150.17 243.94 167.77 235.54 183.51 C 227.34 198.56 216.36 212.24 202.83 222.82 C 183.12 238.64 158.51 247.89 133.39 250.00 L 117.57 250.00 C 96.46 248.37 75.52 241.96 57.73 230.34 C 38.71 218.31 23.08 200.97 13.17 180.76 C 5.61 166.07 1.54 149.79 0.00 133.39 L 0.00 117.57 C 1.15 101.20 5.53 85.15 12.47 70.30 C 20.61 54.13 31.93 39.44 46.05 28.05 C 65.97 11.74 91.00 2.14 116.60 0.00 M 51.06 62.32 C 51.18 63.07 51.42 64.56 51.54 65.30 C 55.21 65.61 58.90 65.44 62.58 65.40 C 62.55 103.63 62.56 141.87 62.58 180.11 C 58.80 180.25 55.02 180.23 51.24 180.26 C 51.24 181.41 51.24 182.57 51.24 183.73 C 71.52 183.59 91.81 183.96 112.08 183.47 C 125.62 182.32 139.38 179.23 151.02 171.96 C 161.02 165.70 167.93 155.27 170.68 143.88 C 173.98 130.15 174.64 115.67 171.47 101.85 C 169.31 90.13 162.74 78.96 152.45 72.64 C 139.58 64.57 123.97 62.04 108.99 62.25 C 89.68 62.27 70.37 62.14 51.06 62.32 M 191.37 155.61 C 181.89 158.09 178.52 170.73 183.39 178.63 C 187.51 186.45 198.46 186.99 205.63 183.49 C 213.24 178.60 214.59 166.80 209.18 159.80 C 204.87 154.65 197.45 154.54 191.37 155.61 Z" />
<path fill="#ffbf00" opacity="1.00" d=" M 97.42 65.40 C 107.14 65.33 118.22 65.22 125.91 72.15 C 131.34 77.72 133.73 85.51 135.04 93.00 C 137.20 104.54 136.55 116.32 136.64 127.99 C 136.45 141.10 136.09 154.94 129.83 166.79 C 126.15 174.00 118.53 178.50 110.69 179.68 C 106.30 180.44 101.83 180.26 97.41 180.12 C 97.46 141.88 97.43 103.64 97.42 65.40 Z" />
</g>
<g id="#000000ff">
<path fill="#000000" opacity="1.00" d=" M 51.06 62.32 C 70.37 62.14 89.68 62.27 108.99 62.25 C 123.97 62.04 139.58 64.57 152.45 72.64 C 162.74 78.96 169.31 90.13 171.47 101.85 C 174.64 115.67 173.98 130.15 170.68 143.88 C 167.93 155.27 161.02 165.70 151.02 171.96 C 139.38 179.23 125.62 182.32 112.08 183.47 C 91.81 183.96 71.52 183.59 51.24 183.73 C 51.24 182.57 51.24 181.41 51.24 180.26 C 55.02 180.23 58.80 180.25 62.58 180.11 C 62.56 141.87 62.55 103.63 62.58 65.40 C 58.90 65.44 55.21 65.61 51.54 65.30 C 51.42 64.56 51.18 63.07 51.06 62.32 M 97.42 65.40 C 97.43 103.64 97.46 141.88 97.41 180.12 C 101.83 180.26 106.30 180.44 110.69 179.68 C 118.53 178.50 126.15 174.00 129.83 166.79 C 136.09 154.94 136.45 141.10 136.64 127.99 C 136.55 116.32 137.20 104.54 135.04 93.00 C 133.73 85.51 131.34 77.72 125.91 72.15 C 118.22 65.22 107.14 65.33 97.42 65.40 Z" />
<path fill="#000000" opacity="1.00" d=" M 191.37 155.61 C 197.45 154.54 204.87 154.65 209.18 159.80 C 214.59 166.80 213.24 178.60 205.63 183.49 C 198.46 186.99 187.51 186.45 183.39 178.63 C 178.52 170.73 181.89 158.09 191.37 155.61 Z" />
</g>
</svg>

<?xml version="1.0" encoding="utf-8"?>
<!-- Generator: Adobe Illustrator 26.0.3, SVG Export Plug-In . SVG Version: 6.00 Build 0)  -->
<svg version="1.1" id="Layer_1" xmlns="http://www.w3.org/2000/svg" xmlns:xlink="http://www.w3.org/1999/xlink" x="0px" y="0px"
	 viewBox="0 0 250 250" style="enable-background:new 0 0 250 250;" xml:space="preserve">
<style type="text/css">
	.st0{fill:#FFBF00;}
</style>
<g id="_x23_ffbf00ff">
	<path class="st0" d="M116.6,0h15.8c26.2,1.9,51.9,11.6,72,28.5c26.6,21.4,42.8,54.2,45.5,88.1v15.8c-1.4,17.8-6.1,35.4-14.5,51.1
		c-8.2,15.1-19.2,28.7-32.7,39.3c-19.7,15.8-44.3,25.1-69.4,27.2h-15.8c-21.1-1.6-42.1-8-59.8-19.7c-19-12-34.7-29.4-44.6-49.6
		c-7.6-14.7-11.6-31-13.2-47.4v-15.8c1.1-16.4,5.5-32.4,12.5-47.3C20.6,54.1,31.9,39.4,46,28C66,11.7,91,2.1,116.6,0 M51.1,62.3
		c0.1,0.8,0.4,2.2,0.5,3c3.7,0.3,7.4,0.1,11,0.1c0,38.2,0,76.5,0,114.7c-3.8,0.1-7.6,0.1-11.3,0.1c0,1.2,0,2.3,0,3.5
		c20.3-0.1,40.6,0.2,60.8-0.3c13.5-1.1,27.3-4.2,38.9-11.5c10-6.3,16.9-16.7,19.7-28.1c3.3-13.7,4-28.2,0.8-42
		c-2.2-11.7-8.7-22.9-19-29.2C139.6,64.6,124,62,109,62.2C89.7,62.3,70.4,62.1,51.1,62.3 M191.4,155.6c-9.5,2.5-12.8,15.1-8,23
		c4.1,7.8,15.1,8.4,22.2,4.9c7.6-4.9,9-16.7,3.5-23.7C204.9,154.6,197.4,154.5,191.4,155.6z"/>
	<path class="st0" d="M97.4,65.4c9.7-0.1,20.8-0.2,28.5,6.8c5.4,5.6,7.8,13.4,9.1,20.8c2.2,11.5,1.5,23.3,1.6,35
		c-0.2,13.1-0.6,27-6.8,38.8c-3.7,7.2-11.3,11.7-19.1,12.9c-4.4,0.8-8.9,0.6-13.3,0.4C97.5,141.9,97.4,103.6,97.4,65.4z"/>
</g>
<g id="_x23_000000ff">
	<path d="M51.1,62.3c19.3-0.2,38.6,0,57.9-0.1c15-0.2,30.6,2.3,43.5,10.4c10.3,6.3,16.9,17.5,19,29.2c3.2,13.8,2.5,28.3-0.8,42
		c-2.8,11.4-9.7,21.8-19.7,28.1c-11.6,7.3-25.4,10.4-38.9,11.5c-20.3,0.5-40.6,0.1-60.8,0.3c0-1.2,0-2.3,0-3.5c3.8,0,7.6,0,11.3-0.1
		c0-38.2,0-76.5,0-114.7c-3.7,0-7.4,0.2-11-0.1C51.4,64.6,51.2,63.1,51.1,62.3 M97.4,65.4c0,38.2,0,76.5,0,114.7
		c4.4,0.1,8.9,0.3,13.3-0.4c7.8-1.2,15.5-5.7,19.1-12.9c6.3-11.8,6.6-25.7,6.8-38.8c-0.1-11.7,0.6-23.4-1.6-35
		c-1.3-7.5-3.7-15.3-9.1-20.8C118.2,65.2,107.1,65.3,97.4,65.4z"/>
	<path d="M191.4,155.6c6.1-1.1,13.5-1,17.8,4.2c5.4,7,4.1,18.8-3.5,23.7c-7.2,3.5-18.1,3-22.2-4.9
		C178.5,170.7,181.9,158.1,191.4,155.6z"/>
</g>
</svg>
